!!!ONR: No. 2
!! From Harold Courlander, "Haiti Singing"
!! Chapel Hill: University of North Carolina Press, 1939
!! Copyright University of North Carolina Press
!!!ENC: D. Huron
**kern
*clefG2
*k[b-]
*M2/4
=1-
8.r
16dd
16dd
16dd
16dd
16dd
=2
4.dd
8ee
=3
16cc
16dd
16ee
16ee
8.ee
16dd
=4
16dd
16dd
16dd
16dd
8.dd
16ee
=5
16cc
16dd
16ee
16dd
8.cc
16cc
=6
12dd
12dd
[12dd
8.dd]
16cc
=7
8ee
8cc
8.a
16ee
=8
8ee
8ee
8.dd
16cc
=9
8ee
8cc
8.a
16dd
=10
8b-
8a
8g
8g
=11
[2e
=12
8.e]
16g
16e
16g
16a
16a
=13
4.a
8dd
=14
8b-
8b-
8g
8g
=15
[2e
=16
8.e]
16g
16e
16g
16a
16a
=17
2a
==
*-
